X:115
T: Jaj de szépen cseng a lapi..
M: 4/4
L: 1/4
K: F
defe | defe | dc_BG | dded | 
cded | cded | dc_BG | ccdc |
dded | BBcB | GGA_B | cccc | 
dded | BBcB | GGAB | GGGG | 

